!!!ONB: MCCC : IFM0076_06 : Extracted Monophonic Melody
!!!COM: Mendelssohn, Felix
!!!OPR: Lieder ohne Worte
!!!OMV: 6
!!!SCT: Op.30
!!!ODT: 1833///
**kern
*staff1
*clefG2
*k[f#c#g#]
*A:
*M6/8
=3
2.e#
=4
2.g#
=5
2.r
=6
4.r
8r
8a
8b
=7
4.cc#
4.cc#
=8
4.cc#[
4cc#]
8cc#
=9
8cc#
8aa
8gg#
8ff#
8ee
8dd
=10
4.cc#
4.f#
=11
4.a[
4a]
8b
=12
4.cc#
4.ff#
=13
4.ee#
4.gg#
=14
4.gg#[
8gg#]
8a
8b
=15
4.cc#
4.cc#
=16
4.cc#[
4cc#]
8cc#
=17
8cc#
8aa
8gg#
8ff#
8ee
8dd
=18
8cc#
8ff#
8ee
8dd
8cc#
8b#
=19
8cc#
8a
8cc#
[4.f#
=20
4f#]
8g#
4e#
8g#
=21
2.f#
=22
4.r
8r
8e#
8f#
=23
4.g#
4.g#
=24
4.a[
8a]
8g#
8a
=25
4.b
4.b
=26
4.cc#[
8cc#]
8a
8b
=27
4.cc#
4.cc#
=28
4.dd#
4.dd#
=29
2.ee#
=30
2.gg#
=31
2.r
=32
4.r
4r
32ccc#
32ddd
32ccc#
32ddd
=33
32ccc#
32ddd
32ccc#
32ddd
32ccc#
32ddd
32ccc#
32ddd
32ccc#
32ddd
32ccc#
32ddd
32ccc#
32ddd
32ccc#
32ddd
32ccc#
32ddd
32ccc#
32ddd
32ccc#
32ddd
32ccc#
32ddd
=34
32ccc#
32ddd
32ccc#
32ddd
32ccc#
32ddd
32ccc#
32ddd
32ccc#
32ddd
32ccc#
32ddd
32ccc#
32ddd
32ccc#
32ddd
32ccc#
32ddd
32ccc#
32ddd
16bb
16ccc#
=35
8eee
8ddd
8ccc#
8bb
8gg
8ff#
=36
8ee
8dd
8cc#
8b
8a
8b
=37
4.cc#
4.cc#
=38
4.cc#[
4cc#]
8cc#
=39
2.ccc#[
=40
4.ccc#]
4.r
=41
8cc#
8a
8cc#
4.f#[
=42
4f#]
8g#
4e#
8g#
=43
2.f#
=44
4.r
8r
8e#
8f#
=45
4.g#
4.g#
=46
4.a[
8a]
8g#
8a
=47
4.b
4.b
=48
4.cc#[
8cc#]
8a
8b
=49
4.cc#
4.cc#
=50
4.dd#
4.dd#
=51
2.ee#
=52
2.gg#
=53
2.r
=54
4.r
4r
32ccc#
32ddd
32ccc#
32ddd
=55
32ccc#
32ddd
32ccc#
32ddd
32ccc#
32ddd
32ccc#
32ddd
32ccc#
32ddd
32ccc#
32ddd
32ccc#
32ddd
32ccc#
32ddd
32ccc#
32ddd
32ccc#
32ddd
32ccc#
32ddd
32ccc#
32ddd
=56
32ccc#
32ddd
32ccc#
32ddd
32ccc#
32ddd
32ccc#
32ddd
32ccc#
32ddd
32ccc#
32ddd
32ccc#
32ddd
32ccc#
32ddd
32ccc#
32ddd
32ccc#
32ddd
16bb
16ccc#
=57
8eee
8ddd
8ccc#
8bb
8gg
8ff#
=58
8ee
8dd
8cc#
8b
8a
8b
=59
4.cc#
4.cc#
=60
4.cc#[
4cc#]
8cc#
=61
2.ccc#[
=62
4.ccc#]
4.r
=63
8cc#
8a
8cc#
4.f#[
=64
4f#]
8g#
4e#
8g#
=65
4.r
4r
[8f#
=66
4f#]
8e[
4e]
8d[
=67
4d]
8c#[
4c#]
32ee#
32ff#
32ee#
32ff#
=68
32ee#
32ff#
32ee#
32ff#
32ee#
32ff#
32ee#
32ff#
32ee#
32ff#
32ee#
32ff#
32ee#
32ff#
32ee#
32ff#
32ee#
32ff#
32ee#
32ff#
16dd#
16ee
=69
4ccc#
8aa
4ff#
[8f#
=70
4f#]
8e[
4e]
8d[
=71
4d]
8c#[
4c#]
32ee#
32ff#
32ee#
32ff#
=72
32ee#
32ff#
32ee#
32ff#
32ee#
32ff#
32ee#
32ff#
32ee#
32ff#
32ee#
32ff#
32ee#
32ff#
32ee#
32ff#
32ee#
32ff#
32ee#
32ff#
16dd#
16ee#
=73
4ccc#
8aa
4ff#
8cc#
=74
4ccc#
8aa
4ff#
8cc#
=75
4.ccc#[
4ccc#]
8aa
=76
[2.ff#
=77
2.ff#_
=78
2.ff#]
==
*-
